src/images/find-white.svg

<svg height="77.5" viewBox="0 0 62 77.5" width="62" xmlns="http://www.w3.org/2000/svg"><path d="m68 71.161v-44.911l-23.25-23.25h-31a7.74 7.74 0 0 0 -7.711 7.75l-.039 62a7.74 7.74 0 0 0 7.711 7.75h46.539a7.68 7.68 0 0 0 4.611-1.55l-17.166-17.167a19.377 19.377 0 1 1 8.68-16.159 19.292 19.292 0 0 1 -3.216 10.656zm-42.625-25.536a11.625 11.625 0 1 0 11.625-11.625 11.609 11.609 0 0 0 -11.625 11.625z" fill="#f8f8f6" transform="translate(-6 -3)"/></svg>

<svg xmlns="http://www.w3.org/2000/svg" width="62" height="77.5" viewBox="0 0 62 77.5">
  <path id="Icon_material-find-in-page" data-name="Icon material-find-in-page" d="M68,71.161V26.25L44.75,3h-31a7.74,7.74,0,0,0-7.711,7.75L6,72.75a7.74,7.74,0,0,0,7.711,7.75H60.25a7.68,7.68,0,0,0,4.611-1.55L47.695,61.783a19.377,19.377,0,1,1,8.68-16.159,19.292,19.292,0,0,1-3.216,10.656ZM25.375,45.625A11.625,11.625,0,1,0,37,34,11.609,11.609,0,0,0,25.375,45.625Z" transform="translate(-6 -3)" fill="#f8f8f6"/>
</svg>
